X:38
T:Row, Row, Row Your Boat
%R: air, round, march
B:"The Everyday Song Book", 1927
F:http://www.library.pitt.edu/happybirthday/pdf/The_Everyday_Song_Book.pdf
Z:2017 John Chambers <jc:trillian.mit.edu>
M:4/4
L:1/8
K:Cmaj
% - - - - - - - - - - - - - - - - - - - - - - - - - - - - -
"^1"C4 C4 | C2>D2 E4 | "^2"E2> D2 E2> F2 | G8 |
w:Row, row, row your boat Gen-tly down the stream;
%
(3"^3"c2 c2 c2 (3G2 G2 G2 | (3E2 E2 E2 (3C2 C2 C2 | "^4"G2> F2 E2> D2 | C8 |]
w:Mer-ri-ly, mer-ri-ly, mer-ri-ly, mer-ri-ly, Life is but a dream.
% - - - - - - - - - - - - - - - - - - - - - - - - - - - - -

